X:4
T:Kerryman's Fling, The
R:fling
H:Also as reel#206
D:Patrick Street: Irish Times
Z:id:hn-hf-4
M:C|
K:D
A2AF ABde|fdef edBd|A2AF ABde|1 fd (3efe d2dB:|2 fd (3efe d2de||
f<aaf bfbf|afef edBd|1 f<aaf bfbf|af (3efe d2de:|2 A2AF ABde|fd (3efe d2dB||
<end>
<start>
